wp-content/themes/sd-accesslasers/public/images/about/icons/about-1.svg

<?xml version="1.0" encoding="UTF-8"?>
<svg width="120px" height="120px" viewBox="0 0 120 120" version="1.1" xmlns="http://www.w3.org/2000/svg" xmlns:xlink="http://www.w3.org/1999/xlink">
    <!-- Generator: Sketch 55 (78076) - https://sketchapp.com -->
    <title>1</title>
    <desc>Created with Sketch.</desc>
    <g id="About" stroke="none" stroke-width="1" fill="none" fill-rule="evenodd">
        <g id="AL_About-Copy" transform="translate(-343.000000, -2046.000000)">
            <g id="Core-Values" transform="translate(343.000000, 1685.000000)">
                <g id="Icons" transform="translate(0.000000, 361.000000)">
                    <g id="1">
                        <g id="icon">
                            <rect id="Icon-120" x="0" y="0" width="120" height="120"></rect>
                            <g id="team" transform="translate(10.000000, 10.000000)" fill="#596975" fill-rule="nonzero">
                                <path d="M26.3362573,37.2424951 L3.32787524,14.2341131 C2.56647173,13.4732943 1.33235867,13.4730994 0.570955166,14.2341131 C-0.190253411,14.9953216 -0.190253411,16.2296296 0.570955166,16.9910331 L23.0074074,39.4270955 L23.0035088,42.1134503 C23.0019493,43.1900585 23.8734893,44.0641326 24.9499025,44.065692 C24.9508772,44.065692 24.9518519,44.065692 24.9528265,44.065692 C26.0280702,44.065692 26.9005848,43.1947368 26.9021442,42.1192982 L26.9072125,38.6237817 C26.9079922,38.105848 26.7025341,37.6087719 26.3362573,37.2424951 Z" id="Path"></path>
                                <path d="M44.0294347,23.0007797 C44.02846,23.0007797 44.0274854,23.0007797 44.0265107,23.0007797 L39.4270955,23.0072125 L16.9912281,0.570955166 C16.2300195,-0.19005848 14.9957115,-0.19005848 14.234308,0.570955166 C13.4730994,1.33216374 13.4730994,2.56647173 14.234308,3.32787524 L37.2426901,26.3360624 C37.6083821,26.7015595 38.1040936,26.9070175 38.6210526,26.9070175 C38.6218324,26.9070175 38.6230019,26.9070175 38.6237817,26.9070175 L44.0321637,26.8994152 C45.1087719,26.8978558 45.9803119,26.0239766 45.9787524,24.9473684 C45.977193,23.87154 45.1048733,23.0007797 44.0294347,23.0007797 Z" id="Path"></path>
                                <path d="M85.571345,0.571150097 C85.2087719,0.208576998 84.705848,0 84.1931774,0 C83.6805068,0 83.1775828,0.208382066 82.8150097,0.571150097 C82.4524366,0.933918129 82.2438596,1.43664717 82.2438596,1.94931774 C82.2438596,2.4619883 82.4524366,2.96491228 82.8150097,3.32729045 C83.1775828,3.69005848 83.6805068,3.89863548 84.1931774,3.89863548 C84.705848,3.89863548 85.2087719,3.69005848 85.571345,3.32729045 C85.9339181,2.96491228 86.1424951,2.4619883 86.1424951,1.94931774 C86.1424951,1.43664717 85.9339181,0.933723197 85.571345,0.571150097 Z" id="Path"></path>
                                <path d="M79.8619883,6.27992203 C79.1007797,5.51890838 77.8664717,5.51890838 77.1052632,6.27992203 L60.3779727,23.0072125 L57.691423,23.0033138 C57.6818713,23.0033138 57.6729045,23.0033138 57.6635478,23.0033138 C52.5064327,23.0033138 47.6586745,25.0111111 44.011306,28.6582846 L42.2594542,30.4105263 C41.4982456,31.1719298 41.4982456,32.4060429 42.2594542,33.1674464 C42.6401559,33.5479532 43.1389864,33.7384016 43.6378168,33.7384016 C44.1366472,33.7384016 44.6356725,33.5479532 45.0161793,33.1674464 L46.7682261,31.4152047 C49.6793372,28.5040936 53.5477583,26.9021442 57.6637427,26.9021442 C57.6711501,26.9021442 57.6787524,26.9021442 57.6859649,26.9021442 L61.1814815,26.9070175 C61.1824561,26.9070175 61.1832359,26.9070175 61.1842105,26.9070175 C61.7011696,26.9070175 62.197076,26.7015595 62.5625731,26.3360624 L79.8619883,9.03684211 C80.6231969,8.27563353 80.6231969,7.04132554 79.8619883,6.27992203 Z" id="Path"></path>
                                <path d="M99.234308,14.2339181 C98.4732943,13.4729045 97.2387914,13.4729045 96.4775828,14.2339181 L73.4692008,37.2424951 C73.1031189,37.6087719 72.8974659,38.105653 72.8982456,38.6237817 L72.9060429,44.0321637 C72.9076023,45.1077973 73.779922,45.9785575 74.8553606,45.9785575 C74.8563353,45.9785575 74.8573099,45.9785575 74.8582846,45.9785575 C75.9348928,45.9769981 76.8064327,45.1031189 76.8048733,44.0263158 L76.7982456,39.4269006 L99.234308,16.9908382 C99.9955166,16.2296296 99.9955166,14.9953216 99.234308,14.2339181 Z" id="Path"></path>
                                <path d="M99.234308,82.81423 L76.7980507,60.3779727 L76.8019493,57.691423 C76.805653,55.1302144 76.3099415,52.6323587 75.328655,50.2668616 C74.9161793,49.2723197 73.7756335,48.8007797 72.7812865,49.2130604 C71.7867446,49.6255361 71.3150097,50.7660819 71.7274854,51.7604288 C72.5105263,53.6483431 72.9060429,55.6419103 72.9031189,57.68577 L72.8980507,61.1812865 C72.897271,61.6992203 73.102729,62.1962963 73.4690058,62.5625731 L96.4775828,85.5711501 C96.8582846,85.9516569 97.357115,86.1421053 97.8559454,86.1421053 C98.3547758,86.1421053 98.8538012,85.9516569 99.234308,85.5711501 C99.9955166,84.8097466 99.9957115,83.5754386 99.234308,82.81423 Z" id="Path"></path>
                                <path d="M85.571345,96.4773879 L62.562768,73.4692008 C62.197076,73.1037037 61.7013645,72.8982456 61.1844055,72.8982456 C61.1836257,72.8982456 61.1824561,72.8982456 61.1816764,72.8982456 L55.7732943,72.905848 C54.6966862,72.9074074 53.8251462,73.7812865 53.8267057,74.8578947 C53.8282651,75.9337232 54.7005848,76.8044834 55.7760234,76.8044834 C55.7769981,76.8044834 55.7779727,76.8044834 55.7789474,76.8044834 L60.3783626,76.7980507 L82.8146199,99.234308 C83.1953216,99.6148148 83.694152,99.8052632 84.1929825,99.8052632 C84.6918129,99.8052632 85.1908382,99.6148148 85.571345,99.234308 C86.3325536,98.4730994 86.3325536,97.2387914 85.571345,96.4773879 Z" id="Path"></path>
                                <path d="M16.9904483,96.4775828 C16.6278752,96.1148148 16.1249513,95.9064327 15.6122807,95.9064327 C15.0996101,95.9064327 14.5966862,96.1148148 14.2341131,96.4775828 C13.87154,96.8401559 13.662963,97.3430799 13.662963,97.8557505 C13.662963,98.3684211 13.87154,98.871345 14.2341131,99.2337232 C14.5966862,99.5962963 15.0996101,99.8050682 15.6122807,99.8050682 C16.1249513,99.8050682 16.6278752,99.5964912 16.9904483,99.2337232 C17.3549708,98.871345 17.5615984,98.3684211 17.5615984,97.8557505 C17.5615984,97.3430799 17.3549708,96.8401559 16.9904483,96.4775828 Z" id="Path"></path>
                                <path d="M69.7140351,49.4598441 C69.2719298,49.0177388 68.7721248,48.6684211 68.2393762,48.4089669 C68.6951267,47.5980507 68.9389864,46.6805068 68.9389864,45.7249513 C68.9389864,44.2580897 68.3678363,42.8789474 67.3306043,41.8415205 C66.8614035,41.3725146 66.3278752,41.0062378 65.7580897,40.7426901 C66.7411306,38.6986355 66.3879142,36.1674464 64.6955166,34.4748538 C63.0033138,32.7830409 60.4732943,32.4292398 58.4294347,33.411306 C58.1614035,32.8345029 57.7920078,32.302729 57.3288499,31.8395712 C55.1873294,29.6984405 51.7035088,29.6988304 49.5621832,31.8395712 L41.7795322,39.6224172 C41.6309942,38.0448343 40.8167641,36.5434698 39.4327485,35.5744639 C38.1966862,34.7089669 36.6990253,34.3846004 35.2155945,34.6617934 C33.7321637,34.9389864 32.4526316,35.7816764 31.6120858,37.0348928 L26.2723197,44.9978558 C24.1267057,48.1976608 22.9953216,51.9255361 23.0007797,55.7785575 L23.0074074,60.3777778 L0.571150097,82.81423 C-0.19005848,83.5754386 -0.19005848,84.8097466 0.571150097,85.5711501 C0.95165692,85.9516569 1.45068226,86.1421053 1.94951267,86.1421053 C2.44834308,86.1421053 2.94736842,85.9516569 3.32787524,85.5711501 L26.3362573,62.562768 C26.7023392,62.1964912 26.9079922,61.6994152 26.9072125,61.1814815 L26.8994152,55.7732943 C26.8951267,52.6984405 27.7978558,49.7231969 29.5105263,47.1693957 L34.8500975,39.2064327 C35.1023392,38.8304094 35.4863548,38.5775828 35.931384,38.4945419 C36.3762183,38.411501 36.8259259,38.508577 37.1966862,38.7682261 C37.9153996,39.27154 38.1220273,40.2534113 37.6672515,41.0037037 L35.5807018,44.4454191 C34.9226121,45.5307992 35.1699805,46.8873294 36.168616,47.6709552 C37.1672515,48.4545809 38.5438596,48.37154 39.4415205,47.4740741 L52.3189084,34.5964912 C52.9401559,33.9750487 53.9508772,33.9752437 54.5721248,34.5964912 C54.8729045,34.8974659 55.0387914,35.2974659 55.0387914,35.7230019 C55.0387914,36.0842105 54.9183236,36.4261209 54.6982456,36.705653 L47.0775828,44.3440546 C46.3163743,45.1052632 46.3163743,46.3395712 47.0775828,47.1009747 C47.8387914,47.8619883 49.0730994,47.8619883 49.8345029,47.1009747 L59.6859649,37.2317739 C60.3072125,36.6105263 61.3179337,36.6105263 61.9389864,37.2315789 C62.5602339,37.8530214 62.5602339,38.8635478 61.9389864,39.4847953 L52.0787524,49.3452242 C51.3175439,50.1064327 51.3175439,51.3407407 52.0787524,52.1021442 C52.4594542,52.4826511 52.9582846,52.6730994 53.457115,52.6730994 C53.9559454,52.6730994 54.4549708,52.4826511 54.8354776,52.1021442 L62.4651072,44.4723197 C63.0898635,43.9818713 63.9988304,44.0230019 64.5740741,44.5984405 C64.8750487,44.8994152 65.0407407,45.2994152 65.0407407,45.7249513 C65.0407407,46.1504873 64.8750487,46.5502924 64.5740741,46.8512671 L57.0795322,54.345809 C56.3183236,55.1070175 56.3183236,56.3413255 57.0795322,57.102729 C57.4602339,57.4832359 57.9590643,57.6736842 58.4578947,57.6736842 C58.9567251,57.6736842 59.4557505,57.4832359 59.8362573,57.102729 L64.8479532,52.0910331 C65.4727096,51.5996101 66.3820663,51.6409357 66.9576998,52.2167641 C67.2586745,52.5175439 67.4243665,52.9177388 67.4243665,53.3432749 C67.4243665,53.7688109 67.2586745,54.1688109 66.9576998,54.4695906 L53.0376218,68.3898635 C50.1265107,71.3009747 46.2580897,72.902924 42.1421053,72.902924 C42.1346979,72.902924 42.1270955,72.902924 42.119883,72.902924 L38.6243665,72.8980507 C38.6233918,72.8980507 38.6226121,72.8980507 38.6216374,72.8980507 C38.1046784,72.8980507 37.6087719,73.1035088 37.2432749,73.4690058 L19.1317739,91.5805068 C18.3705653,92.3417154 18.3705653,93.5760234 19.1317739,94.3374269 C19.5124756,94.7179337 20.011306,94.9083821 20.5101365,94.9083821 C21.0089669,94.9083821 21.5079922,94.7179337 21.888499,94.3374269 L39.4278752,76.7978558 L42.114425,76.8017544 C42.1239766,76.8017544 42.1329435,76.8017544 42.1423002,76.8017544 C47.2994152,76.8017544 52.1471735,74.7939571 55.7945419,71.1467836 L69.7140351,57.2265107 C71.8551657,55.0853801 71.8551657,51.6011696 69.7140351,49.4598441 Z" id="Path"></path>
                            </g>
                        </g>
                    </g>
                </g>
            </g>
        </g>
    </g>
</svg>

<svg width="120" height="120" viewBox="0 0 120 120" version="1.1" xmlns="http://www.w3.org/2000/svg"><g id="About" stroke="none" stroke-width="1" fill="none" fill-rule="evenodd"><g id="AL_About-Copy" transform="translate(-343 -2046)"><g id="Core-Values" transform="translate(343 1685)"><g id="Icons" transform="translate(0 361)"><g id="1"><g id="icon"><path id="Icon-120" d="M0 0h120v120H0z"/><g id="team" transform="translate(10 10)" fill="#596975" fill-rule="nonzero"><path d="M26.336 37.242L3.328 14.234A1.95 1.95 0 0 0 .57 16.991l22.436 22.436-.003 2.686a1.95 1.95 0 0 0 1.946 1.953h.003a1.95 1.95 0 0 0 1.95-1.947l.004-3.495a1.95 1.95 0 0 0-.57-1.382zM44.03 23h-.003l-4.6.007L16.991.571a1.95 1.95 0 0 0-2.757 2.757l23.009 23.008a1.95 1.95 0 0 0 1.378.571h.003l5.408-.008a1.95 1.95 0 0 0-.003-3.898zM85.571.571A1.964 1.964 0 0 0 84.193 0c-.512 0-1.015.208-1.378.571a1.964 1.964 0 0 0-.571 1.378c0 .513.208 1.016.571 1.378.363.363.866.572 1.378.572.513 0 1.016-.209 1.378-.572a1.96 1.96 0 0 0 .571-1.378c0-.512-.208-1.015-.57-1.378zM79.862 6.28a1.95 1.95 0 0 0-2.757 0L60.378 23.007l-2.687-.004h-.027a19.18 19.18 0 0 0-13.653 5.655l-1.752 1.753a1.95 1.95 0 0 0 2.757 2.756l1.752-1.752a15.305 15.305 0 0 1 10.896-4.513h.022l3.495.005h.003a1.95 1.95 0 0 0 1.379-.57l17.299-17.3a1.95 1.95 0 0 0 0-2.757zm19.372 7.954a1.95 1.95 0 0 0-2.756 0L73.469 37.242a1.95 1.95 0 0 0-.57 1.382l.007 5.408a1.95 1.95 0 0 0 1.95 1.947h.002a1.95 1.95 0 0 0 1.947-1.953l-.007-4.6 22.436-22.435a1.95 1.95 0 0 0 0-2.757zm0 68.58L76.798 60.378l.004-2.687a19.206 19.206 0 0 0-1.473-7.424 1.95 1.95 0 0 0-3.602 1.493 15.33 15.33 0 0 1 1.176 5.926l-.005 3.495c0 .518.205 1.015.571 1.382L96.478 85.57c.38.38.88.571 1.378.571a1.95 1.95 0 0 0 1.378-3.328zM85.571 96.477L62.563 73.47a1.95 1.95 0 0 0-1.379-.57h-.002l-5.409.007a1.95 1.95 0 0 0 .003 3.898h.003l4.6-.006 22.436 22.436c.38.38.88.571 1.378.571a1.95 1.95 0 0 0 1.378-3.328zm-68.581.001a1.963 1.963 0 0 0-1.378-.572c-.512 0-1.015.209-1.378.572a1.964 1.964 0 0 0-.571 1.378c0 .512.209 1.015.571 1.378.363.362.866.571 1.378.571.513 0 1.016-.209 1.378-.571.365-.363.572-.866.572-1.378 0-.513-.207-1.016-.572-1.378z" id="Path"/><path d="M69.714 49.46a5.465 5.465 0 0 0-1.475-1.051c.456-.81.7-1.728.7-2.684a5.457 5.457 0 0 0-1.608-3.883 5.469 5.469 0 0 0-1.573-1.1 5.5 5.5 0 0 0-1.062-6.267 5.501 5.501 0 0 0-6.267-1.064 5.496 5.496 0 0 0-8.867-1.571l-7.782 7.782a5.568 5.568 0 0 0-2.347-4.048 5.527 5.527 0 0 0-4.217-.912 5.529 5.529 0 0 0-3.604 2.373l-5.34 7.963a19.242 19.242 0 0 0-3.271 10.78l.006 4.6L.571 82.814a1.95 1.95 0 0 0 2.757 2.757l23.008-23.008a1.95 1.95 0 0 0 .571-1.382l-.008-5.408a15.355 15.355 0 0 1 2.612-8.604l5.34-7.963a1.659 1.659 0 0 1 1.08-.711 1.66 1.66 0 0 1 1.266.273c.718.504.925 1.485.47 2.236l-2.086 3.441a2.444 2.444 0 0 0 .588 3.226c.998.784 2.375.7 3.273-.197l12.877-12.878a1.595 1.595 0 0 1 2.72 1.127c0 .361-.12.703-.34.983l-7.621 7.638a1.95 1.95 0 0 0 2.757 2.757l9.851-9.87a1.595 1.595 0 0 1 2.253 0 1.595 1.595 0 0 1 0 2.254l-9.86 9.86a1.95 1.95 0 0 0 2.756 2.757l7.63-7.63a1.595 1.595 0 0 1 2.576 1.253c0 .425-.166.825-.467 1.126l-7.494 7.495a1.95 1.95 0 0 0 2.756 2.757l5.012-5.012a1.594 1.594 0 0 1 2.576 1.252c0 .426-.165.826-.466 1.127l-13.92 13.92a15.305 15.305 0 0 1-10.896 4.513h-.022l-3.496-.005h-.002a1.95 1.95 0 0 0-1.379.571L19.132 91.581a1.95 1.95 0 0 0 2.756 2.756l17.54-17.54 2.686.005h.028a19.18 19.18 0 0 0 13.653-5.655l13.919-13.92a5.498 5.498 0 0 0 0-7.767z" id="Path"/></g></g></g></g></g></g></g></svg>
